public/assets/images/icons/white/export/folder-edit-empty.svg

<svg width="16" height="16" xmlns="http://www.w3.org/2000/svg" viewBox="0 0 16 16" shape-rendering="geometricPrecision" fill="#fff"><defs><mask id="a"><rect width="100%" height="100%"/><path d="M13.848-1.1L12.051.695l.286.287A4.455 4.455 0 0 0 9.23 5.236v.987h2.626v-.988c0-.491.191-.954.538-1.302l.03-.03 1.425 1.421 3.212-3.213L13.848-1.1z" fill="#000"/></mask></defs><path d="M13.848-.04l-.736.735.821.821h-.234l-.156.008A3.722 3.722 0 0 0 9.98 5.235v.237h1.126v-.237c0-.691.27-1.343.759-1.833a2.579 2.579 0 0 1 1.833-.759h.3l-.886.887.735.734L16 2.111 13.848-.04z" fill="#cb1800"/><g mask="url(#a)"><path d="M6.799 3.47L6.5 1.979h-4L2.2 3.47H.999v10h14v-10h-8.2zm7.201 9H2v-8h12v8z"/><path d="M6.685 11.616l.575-.49-.646-.258zm-.151-1.457l1.37-3.418 1.268.509-1.37 3.417zm2.599-4.651a.683.683 0 0 0-.886.376l-.204.508 1.268.509.205-.509h-.001a.682.682 0 0 0-.382-.884z"/></g></svg>

<?xml version="1.0"?><!DOCTYPE svg PUBLIC "-//W3C//DTD SVG 1.1//EN" "http://www.w3.org/Graphics/SVG/1.1/DTD/svg11.dtd"><svg width="16px" height="16px" xmlns="http://www.w3.org/2000/svg" viewBox="0 0 16 16" shape-rendering="geometricPrecision" fill="#fff"><defs><mask id="export-path"><rect fill="#fff" width="100%" height="100%"/><path d="M13.848-1.1l-1.797,1.795l0.286,0.287c-1.812,0.575-3.107,2.263-3.107,4.254v0.987h2.626 V5.235c0-0.491,0.191-0.954,0.538-1.302c0.01-0.01,0.021-0.02,0.03-0.03l1.425,1.421l3.212-3.213L13.848-1.1z" fill="#000"/></mask></defs><path id="export" display="inline" d="M13.848-0.04l-0.736,0.735l0.821,0.821h-0.234 l-0.156,0.008c-1.978,0.084-3.563,1.714-3.563,3.711v0.237h1.126V5.235c0-0.691,0.27-1.343,0.759-1.833 c0.49-0.489,1.141-0.759,1.833-0.759h0.237V2.643h0.063L13.112,3.53l0.735,0.734L16,2.111L13.848-0.04z" fill="#cb1800"/><g mask="url(#export-path)"><path d="M6.799,3.47L6.5,1.979h-4L2.2,3.47H0.999v10h14v-10H6.799z M14,12.47H2v-8h5h7V12.47z"/><g><polygon points="6.685,11.616 7.26,11.126 6.614,10.868"/><rect x="6.012" y="8.022" transform="matrix(0.3723 -0.9281 0.9281 0.3723 -3.1496 12.7517)" width="3.682" height="1.366"/><path d="M9.133,5.508C8.784,5.368,8.39,5.537,8.247,5.884L8.043,6.392l1.268,0.509l0.205-0.509H9.515 C9.652,6.042,9.483,5.646,9.133,5.508z"/></g></g></svg>
